X:1
T:Mulier, quae erat - Gabrieli
T:#
%%score [ 1 2 3 4 ]
L:1/8
Q:1/4=200
M:none
K:F
V:1 treble nm="Soprano" snm="S"
V:2 treble nm="Alto" snm="A"
V:3 treble-8 nm="Tenor" snm="T"
V:4 bass nm="Bass" snm="B"
V:1
"^Mulier, quae erat""^Andrea Gabrieli\n(c. 1510-1586)" z16 | z16 | z16 | z16 | z16 | z16 | %6
w: ||||||
[M:4/2] f16 | e8 d8 | z8 c8 | B8 A4 f4- | f4 e4 d8 | z4 d4 f8 | e4 c4 d4 e4 | (f6 ed c4) d4 | %14
w: Mu-|li- er,|mu-|li- er, mu\-|* li- er,|quae e-|rat in ci- vi-|ta\- * * * te|
 d4 (c8 =B4) | c8 z8 | c12 c4 | c4 A8 B4 | F16 | c4 d4 c8 | d8 z4 g4- | g4 g4 g4 e4- | e4 f4 c8- | %23
w: pec- ca\- *|trix,|at- tu-|lit a- la-|ba-|strum un- guen-|ti, at\-|* tu- lit al\-|* la- ba\-|
 c8 c8- | c4 c4 (c8 | d8) (d6 c2 | =B4) c4 c8- | c8 d8 | c8 A6 B2 | c4 A4 B4 G4 | A8 z8 | %31
w: * strum|* un- guen\-|* ti, *|* et stans|* re-|tro se- cus|pe- des Do- mi-|ni,|
 z8 z4 c4 | c16 | d8 c8 | e6 f2 g4 e4 | f4 d4 e8 | A6 B2 c4 A4 | B4 G4 A8- | A16 | A8 z8 | z8 f8- | %41
w: et|stans|re- tro|se- cus pe- des|Do- mi- ni,|se- cus pe- des|Do- mi- ni,|||la\-|
 f4 e4 e4 (f4- | f2 e2 d2 c2 B2 G2 B4) | A4 A4 c8 | A4 c4 d4 (f4- | f2 ed e4) f8 | z16 | z16 | %48
w: * cry- mis coe\-||pit ri- ga-|re pe- des e\-|* * * * ius,|||
 z16 | z8 z4 f4 | e8 c8- | c8 z8 | z4 c8 c4 | A4 F4 G8 | A4 A4 B8 | A4 f4 d8 | c8 z8 | z4 B4 G8 | %58
w: |ter-|ge- bat,||et ca-|pil- lis ca-|pi- tis su-|i ter- ge-|bat,|ter- ge-|
 F4 f8 f4 | e4 c4 d8 | e4[Q:1/4=198] e4[Q:1/4=196] f4[Q:1/4=194] c4 |[Q:1/4=191] f8[Q:1/4=187] d8 | %62
w: bat, et ca-|pil- lis ca-|pi- tis su- i|ter- ge-|
[Q:1/4=181] c16- |[Q:1/4=173] c16 |] %64
w: bat.||
V:2
 z16 | z16 | z16 | z8 c8- | c8 B8 | A16- |[M:4/2] A8 z8 | z16 | z4 A8 G4 | F16 | z4 G4 B8 | %11
w: |||Mu\-|* li-|er,|||mu- li-|er,|quae e-|
 A4 F4 A4 B4 | (c6 BA G8) | F12 D4 | (F6 E2 D8) | C16 | z16 | z4 F8 F4 | F4 D8 A4 | F16 | %20
w: rat in ci- vi-|ta\- * * *|te pec-|ca\- * *|trix,||at- tu-|lit a- la-|ba-|
 F4 F4 (G4 F2 E2 | D8) E4 G4- | G4 A4 A4 A4- | A4 G8 (F4- | F2 ED E4) F4 A4- | A4 (G6 ^FE F4) | %26
w: strum un- guen\- * *|* ti, at\-|* tu- lit a\-|* la- ba\-|* * * * strum un\-|* guen\- * * *|
 G4 E4 (=F6 G2 | A8) F8- | F8 F8 | z8 D6 E2 | F4 D4 E4 C4 | D8 C6 D2 | E4 F4 (E2 C2 F4-) | %33
w: ti, et stans *|* re\-|* tro|se- cus|pe- des Do- mi-|ni, se- cus|pe- des Do\- * *|
 F4 G4 E8 | z4 G4 G4 A4- | A4 F4 G8 | F8 E4 F4 | D4 G4 F4 (F2 E2) | (D2 C2 D8 C2 B,2 | C4) C4 A,8 | %40
w: * mi- ni,|et stans re\-|* tro se-|cus pe- des|Do- mi- ni, Do\- *||* mi- ni,|
 z16 | A12 F4 | F8 G8 | C4 D4 (A6 B2 | c4) A4 B4 B4 | G8 (F6 E2 | D8) z8 | z4 G4 E8 | D4 F8 F4 | %49
w: |la- cry-|mis coe-|pit ri- ga\- *|* re pe- des|e- ius, *||ter- ge-|bat, et ca-|
 E4 C4 D8 | E4 E4 F8 | C8 z4 F4 | E8 C8 | z4 D8 D4 | E4 F4 D8 | C4 C4 (F6 G2 | A16) | F8 z4 c4 | %58
w: pil- lis ca-|pi- tis su-|~i ter-|ge- bat,|et ca-|pil- lis ca-|pi- tis su\- *||i ter-|
 A8 A4 A4 | G4 F8 F4 | G8 A4 A4 | c4 F4 G4 (F4- | F4 E2 D2 E8) | F16 |] %64
w: ge- bat, et|ca- pil- lis|ca- pi- tis|su- i ter- ge\-||bat.|
V:3
 z16 | f16 | e8 d8 | z4 d4 f8 | e4 c4 d4 e4 | (f6 ed c4) d4 |[M:4/2][K:treble-8] d4 (c8 =B4) | %7
w: |Mu-|li- er,|quae e-|rat in ci- vi-|ta\- * * * te|pec- ca\- *|
 c8 f8- | f8 e8 | d8 z4 d4 | g8 g4 f4 | f4 (a2 g2 f2 e2 d4) | e4 f8 e4 | (a12 g2 f2) | a8 z4 g4- | %15
w: trix, mu\-|* li-|er, quae|e- rat in|ci- vi\- * * * *|ta- te pec-|ca\- * *|trix, at\-|
 g4 g4 g4 e4- | e4 f4 c8 | f4 f4 d8 | d8 z4 c4- | c4 (B6 AG A4) | B4 d8 (c4- | c2 =BA B4) c8- | %22
w: * tu- lit a\-|* la- ba-|strum un- guen-|ti, un\-|* guen\- * * *|ti, un- guen\-|* * * * ti,|
 c8 z4 c4- | c4 c4 c4 A4- | A4 G4 A8 | F4 B4 A8 | G4 G4 (A6 B2 | c4) (f2 e2 d2 c2 B4-) | %28
w: * at\-|* tu- lit a\-|* la- ba-|strum un- guen-|ti, et stans *|* re\- * * * *|
 (B2 AG A2 B2 c2 d2 c4) | A8 z8 | A6 B2 c4 A4 | B4 G4 A8 | z16 | z8 z4 c4 | c16 | d8 c4 c4- | %36
w: |tro|se- cus pe- des|Do- mi- ni,||et|stans|re- tro se\-|
 c4 c4 c4 d4 | d4 c4 c8 | z4 f8 e4 | e4 (f6 e2 d2 c2 | B2 G2 B4) A4 A4 | c8 A4 c4 | d4 (f6 ed e4) | %43
w: * cus pe- des|Do- mi- ni,|la- cry-|mis coe\- * * *|* * * pit ri-|ga- re pe-|des e\- * * *|
 f8 z4 f4- | f4 f4 d4 B4 | c8 d4 d4 | f8 c4 f4 | d8 c8 | z8 z4 c4- | c4 c4 B4 A4 | %50
w: ius, et|* ca- pil- lis|ca- pi- tis|su- i ter-|ge- bat,|et|* ca- pil- lis|
 A4 G4 A4 (F2 G2 | A2 B2 c8 =B4) | (c6 d2 e8) | z4 f4 d8 | c8 z8 | z8 z4 f4- | f4 f4 d4 c4 | %57
w: ca- pi- tis su\- *||i * *|ter- ge-|bat,|et|* ca- pil- lis|
 d8 e4 e4 | (f6 ed c2 B2 c4-) | c4 A8 B4 | G8 F8 | A8 (B6 A2 | G16) | A16 |] %64
w: ca- pi- tis|su\- * * * * *|* i ter-|ge- bat,|ter- ge\- *||bat.|
V:4
 C16 | B,8 A,8 | z4 G,4 B,8 | A,4 G,4 A,4 B,4 | (C6 B,A, G,8) | F,12 D,4 |[M:4/2] (F,6 E,2 D,8) | %7
w: Mu-|li- er,|quae e-|rat in ci- vi-|ta\- * * *|te pec-|ca\- * *|
 C,4 C8 B,4 | A,16 | z4 B,4 D8 | C4 C4 (G,2 A,2 B,2 C2 | D4) D4 D,8 | A,4 A,4 B,4 C4 | %13
w: trix, mu- li-|er,|quae e-|rat in ci\- * * *|* vi- ta-|te, in ci- vi-|
 (D6 CB, A,2 F,2 B,4) | F,4 F,4 G,8 | C,16 | z16 | z8 z4 B,4- | B,4 B,4 B,4 A,4- | A,4 B,4 F,8 | %20
w: ta\- * * * * *|te pec- ca-|trix,||at\-|* tu- lit a\-|* la- ba-|
 B,4 B,4 G,8 | G,8 z8 | z4 F,8 F,4 | F,4 E,8 F,4 | C,8 F,4 F,4 | D,8 D,8 | z4 C,4 F,8- | F,8 B,,8 | %28
w: strum un- guen-|ti,|at- tu-|lit a- la-|ba- strum un-|guen- ti,|et stans|* re-|
 F,4 F,4 F,8- | F,8 G,8 | F,8 z8 | z16 | A,6 B,2 C4 A,4 | B,4 G,4 A,8 | z16 | z16 | %36
w: tro, et stans|* re-|tro||se- cus pe- des|Do- mi- ni,|||
 F,6 G,2 A,4 F,4 | G,4 E,4 F,8 | z8 A,8- | A,4 F,4 F,8 | G,8 F,4 D,4 | (A,6 B,2 C4) A,4 | %42
w: se- cus pe- des|Do- mi- ni,|la\-|* cry- mis|coe- pit ri-|ga\- * * re|
 B,4 B,4 G,8 | F,16- | F,8 z8 | z8 z4 B,4- | B,4 B,4 A,4 F,4 | G,8 A,4 A,4 | B,8 F,8 | z4 F,4 D,8 | %50
w: pe- des e-|ius,||et|* ca- pil- lis|ca- pi- tis|su- i|ter- ge-|
 C,8 z8 | z4 F,4 D,8 | C,4 C4 A,8 | F,4 B,8 B,4 | A,4 F,4 G,8 | A,4 A,4 B,8 | F,4 F,8 F,4 | %57
w: bat,|ter- ge-|bat, ter- ge-|bat, et ca-|pil- lis ca-|pi- tis su-|i, et ca-|
 D,4 B,,4 C,8 | D,4 D,4 F,8 | C,4 F,4 D,8 | C,4 C,4 (C2 B,2 A,2 G,2 | F,2 E,2 D,2 C,2 B,,8 | %62
w: pil- lis ca-|pi- tis su-|i ter- ge-|bat, ter- ge\- * * *||
 C,16) | F,16 |] %64
w: |bat.|

